X:1
T:Death of Queen Jane
M:3/4
L:1/4
K:G
 z z/2D/2-E/2-F/2| G G B| D D c| B A G| F z B3/4 A/4| G3/2 F/2F/2 E/2|\
 E D B,/2C/2| D3/4 D/4 E F| A- G E3/4 D/4| D3/2 E/2D/2 C/2| C B,/2B,/2 C|\
 D3/4 D/4 E F| G2 z|
